logos/pytorch-icon.svg

<?xml version="1.0" encoding="UTF-8"?>
<svg width="256px" height="310px" viewBox="0 0 256 310" version="1.1" xmlns="http://www.w3.org/2000/svg" preserveAspectRatio="xMidYMid">
    <title>PyTorch</title>
    <g>
        <path d="M127.825375,0 L127.825375,45.053206 L58.6014385,114.274581 C22.3724498,151.019279 22.3761466,210.127594 58.612529,247.538772 L59.7216917,248.665757 C96.7421555,286.38472 157.511596,286.38472 195.230559,248.665757 C232.572333,212.015498 232.945751,152.088867 196.350813,114.295327 L195.230559,113.156889 L218.281037,90.106412 C268.572988,140.398363 268.572988,221.075034 218.281037,271.716235 C169.036835,322.008186 88.0109141,322.008186 37.7189632,271.716235 C-12.0700682,221.927203 -12.5679585,142.015808 36.2252922,91.6243293 L37.7189632,90.106412 L127.825375,0 Z M173.227831,50.9904502 C182.486323,50.9904502 189.991814,58.4959413 189.991814,67.7544338 C189.991814,77.0129263 182.486323,84.5184175 173.227831,84.5184175 C163.969338,84.5184175 156.463847,77.0129263 156.463847,67.7544338 C156.463847,58.4959413 163.969338,50.9904502 173.227831,50.9904502 Z" fill="#EE4C2C"></path>
    </g>
</svg>

<svg preserveAspectRatio="xMidYMid" viewBox="0 0 256 310" xmlns="http://www.w3.org/2000/svg">
  <path fill="#EE4C2C" d="M127.825 0v45.053l-69.224 69.222c-36.229 36.744-36.225 95.853.012 133.264l1.109 1.127c37.02 37.719 97.79 37.719 135.509 0 37.341-36.65 37.715-96.577 1.12-134.37l-1.12-1.14 23.05-23.05c50.292 50.292 50.292 130.969 0 181.61-49.244 50.292-130.27 50.292-180.562 0-49.79-49.789-50.287-129.7-1.494-180.092l1.494-1.518L127.825 0Zm45.403 50.99c9.258 0 16.764 7.506 16.764 16.764 0 9.259-7.506 16.764-16.764 16.764-9.259 0-16.764-7.505-16.764-16.764 0-9.258 7.505-16.764 16.764-16.764Z"/>
</svg>
